src/_assets/sidebar/wish-for-change-icon.svg

<svg width="24" height="24" viewBox="0 0 24 24" fill="none" xmlns="http://www.w3.org/2000/svg">
<path d="M18.3056 16.6485C17.9861 16.329 17.468 16.329 17.1486 16.6485C16.8291 16.968 16.8291 17.486 17.1486 17.8055L18.3056 16.6485ZM18.7848 19.4418C19.1043 19.7613 19.6224 19.7613 19.9419 19.4418C20.2614 19.1223 20.2614 18.6043 19.9419 18.2848L18.7848 19.4418ZM15.798 6.90812L15.8111 7.44526L17.4469 7.40543L17.4338 6.86827L15.798 6.90812ZM17.0356 10.0048L17.4401 10.343L18.4895 9.0874L18.0849 8.74926L17.0356 10.0048ZM16.7869 13.6047L16.2809 13.8021L16.8755 15.3265L17.3815 15.1292L16.7869 13.6047ZM14.227 15.8098L14.0171 16.3125L15.527 16.943L15.7369 16.4404L14.227 15.8098ZM10.7619 16.8826L10.4361 16.4674L9.14873 17.4774L9.4745 17.8926L10.7619 16.8826ZM7.9166 15.1682L7.38227 15.1407L7.29823 16.7749L7.83255 16.8024L7.9166 15.1682ZM6.02398 12.2315L6.32859 11.7776L4.96986 10.8658L4.66526 11.3197L6.02398 12.2315ZM6.85725 8.96635L6.73694 8.44671L5.14282 8.81576L5.26312 9.33541L6.85725 8.96635ZM9.15308 6.07811L9.66712 6.21276L10.0818 4.62988L9.56772 4.49522L9.15308 6.07811ZM12.4865 5.75632L12.9465 5.46264L12.0659 4.08347L11.606 4.37715L12.4865 5.75632ZM9.66712 6.21276C10.1637 6.34285 10.6424 6.48505 11.1367 6.40434L10.8731 4.78943C10.8003 4.8013 10.7143 4.79559 10.0818 4.62988L9.66712 6.21276ZM11.606 4.37715C11.0408 4.73799 10.9511 4.77669 10.8731 4.78943L11.1367 6.40434C11.6257 6.3245 12.0412 6.04062 12.4865 5.75632L11.606 4.37715ZM6.73694 8.44671C6.49821 7.41549 6.34263 6.73367 6.30345 6.23764C6.26531 5.75466 6.35825 5.67152 6.38319 5.64714L5.23922 4.47719C4.69533 5.009 4.6201 5.70611 4.67225 6.36647C4.72336 7.01378 4.91654 7.8384 5.14282 8.81576L6.73694 8.44671ZM9.56772 4.49522C8.60124 4.24205 7.78473 4.02584 7.14083 3.95713C6.48292 3.88692 5.78421 3.94429 5.23922 4.47719L6.38319 5.64714C6.40703 5.62382 6.48947 5.5332 6.96722 5.58419C7.45898 5.63666 8.13266 5.81081 9.15308 6.07811L9.56772 4.49522ZM6.32859 11.7776C6.62396 11.3374 6.91649 10.9292 7.00861 10.4426L5.40088 10.1383C5.38571 10.2184 5.34366 10.3088 4.96986 10.8658L6.32859 11.7776ZM5.26312 9.33541C5.41096 9.97398 5.41514 10.0629 5.40088 10.1383L7.00861 10.4426C7.10165 9.95115 6.97369 9.46931 6.85725 8.96635L5.26312 9.33541ZM7.38227 15.1407C6.32147 15.0862 5.62143 15.0479 5.13838 14.9497C4.90531 14.9022 4.77967 14.8509 4.71383 14.8118C4.66341 14.7817 4.65538 14.7645 4.64876 14.7506L3.17199 15.4553C3.50651 16.1564 4.17319 16.4231 4.81215 16.5531C5.44474 16.6818 6.2937 16.7233 7.29823 16.7749L7.38227 15.1407ZM4.66526 11.3197C4.09148 12.1748 3.6087 12.8906 3.32426 13.4818C3.03946 14.0737 2.84193 14.7636 3.17199 15.4553L4.64876 14.7506C4.64695 14.7469 4.57784 14.6504 4.79877 14.1912C5.02006 13.7312 5.42035 13.131 6.02398 12.2315L4.66526 11.3197ZM10.4361 16.4674C10.124 16.0696 9.82601 15.6617 9.37969 15.432L8.63088 16.8869C8.68527 16.9149 8.74509 16.963 9.14873 17.4774L10.4361 16.4674ZM7.83255 16.8024C8.49396 16.8364 8.57391 16.8576 8.63088 16.8869L9.37969 15.432C8.93595 15.2036 8.429 15.1946 7.9166 15.1682L7.83255 16.8024ZM14.0171 16.3125C13.6012 17.3085 13.3223 17.9709 13.0601 18.4098C12.8005 18.8442 12.674 18.857 12.6491 18.8611L12.9128 20.4759C13.6619 20.3536 14.1252 19.8175 14.4648 19.2489C14.8018 18.6848 15.1316 17.8899 15.527 16.943L14.0171 16.3125ZM9.4745 17.8926C10.0864 18.6725 10.6037 19.3356 11.0723 19.7744C11.5508 20.2226 12.1499 20.6005 12.9128 20.4759L12.6491 18.8611C12.638 18.8629 12.5354 18.9028 12.1908 18.58C11.8363 18.248 11.4093 17.7075 10.7619 16.8826L9.4745 17.8926ZM16.2809 13.8021C15.7887 13.994 15.3196 14.1608 14.9643 14.5081L16.1082 15.6781C16.1696 15.618 16.2563 15.568 16.8755 15.3265L16.2809 13.8021ZM15.7369 16.4404C15.9938 15.8253 16.0464 15.7386 16.1082 15.6781L14.9643 14.5081C14.6094 14.8552 14.4313 15.3206 14.227 15.8098L15.7369 16.4404ZM17.4401 10.343C18.2441 11.0148 18.7705 11.4579 19.0917 11.8227C19.403 12.1767 19.3633 12.2811 19.3602 12.2971L20.968 12.6015C21.1114 11.8438 20.7539 11.2348 20.32 10.7417C19.8957 10.2597 19.2494 9.72255 18.4895 9.0874L17.4401 10.343ZM17.3815 15.1292C18.3344 14.7576 19.1349 14.4475 19.7059 14.124C20.2827 13.7973 20.8269 13.3466 20.968 12.6015L19.3602 12.2971C19.3548 12.3256 19.3369 12.4524 18.8993 12.7004C18.4559 12.9516 17.7897 13.2137 16.7869 13.6047L17.3815 15.1292ZM15.8111 7.44526C15.8236 7.9611 15.8191 8.46783 16.0337 8.91747L17.5104 8.21279C17.4819 8.15288 17.463 8.0696 17.4469 7.40543L15.8111 7.44526ZM18.0849 8.74926C17.584 8.33063 17.5373 8.26911 17.5104 8.21279L16.0337 8.91747C16.2499 9.3707 16.6477 9.6806 17.0356 10.0048L18.0849 8.74926ZM17.4338 6.86827C17.4091 5.85809 17.3906 5.00564 17.2795 4.36806C17.1676 3.72574 16.9211 3.04985 16.2309 2.69463L15.4822 4.14953C15.4946 4.15593 15.5117 4.1641 15.5407 4.21649C15.5784 4.28447 15.6264 4.41294 15.6676 4.64885C15.7526 5.13733 15.7719 5.84206 15.798 6.90812L17.4338 6.86827ZM12.9465 5.46264C13.8581 4.88057 14.4659 4.495 14.9292 4.28535C15.3918 4.07599 15.4822 4.14953 15.4822 4.14953L16.2309 2.69463C15.5475 2.34288 14.8517 2.52433 14.2545 2.79462C13.6579 3.0646 12.9322 3.5304 12.0659 4.08347L12.9465 5.46264ZM17.1486 17.8055L18.7848 19.4418L19.9419 18.2848L18.3056 16.6485L17.1486 17.8055Z" fill="#485F7D"/>
</svg>

<svg xmlns="http://www.w3.org/2000/svg" width="24" height="24" fill="none"><path fill="#485F7D" d="M18.306 16.649a.818.818 0 1 0-1.157 1.156zm.479 2.793a.818.818 0 0 0 1.157-1.157zM15.798 6.908l.013.537 1.636-.04-.013-.537zm1.238 3.097.404.338 1.05-1.256-.405-.338zm-.25 3.6-.505.197.595 1.524.505-.197zm-2.559 2.205-.21.502 1.51.631.21-.503zm-3.465 1.073-.326-.416-1.287 1.01.326.416zm-2.845-1.715-.535-.027-.084 1.634.535.027zm-1.893-2.936.305-.454-1.36-.912-.304.454zm.833-3.266-.12-.52-1.594.37.12.52zm2.296-2.888.514.135.415-1.583-.514-.135zm3.333-.322.46-.293-.88-1.38-.46.294zm-2.819.457c.497.13.975.272 1.47.191l-.264-1.615c-.073.012-.159.007-.791-.16zm1.939-1.836c-.565.361-.655.4-.733.412l.264 1.615c.489-.08.904-.363 1.35-.648zm-4.87 4.07c-.238-1.032-.393-1.713-.433-2.21-.038-.482.055-.565.08-.59L5.24 4.477c-.544.532-.619 1.23-.567 1.89.051.647.245 1.471.47 2.449zm2.832-3.952c-.967-.253-1.783-.47-2.427-.538-.658-.07-1.357-.013-1.902.52l1.144 1.17c.024-.023.106-.114.584-.063.492.053 1.166.227 2.186.494zm-3.24 7.283c.296-.44.588-.849.68-1.335l-1.607-.305c-.015.08-.057.17-.431.728zM5.264 9.335c.148.639.152.728.138.803l1.608.305c.093-.492-.035-.974-.152-1.477zm2.12 5.806c-1.062-.055-1.762-.093-2.245-.191-.233-.048-.358-.1-.424-.138-.05-.03-.059-.047-.065-.061l-1.477.704c.335.701 1.001.968 1.64 1.098.633.129 1.482.17 2.486.222zM4.664 11.32c-.574.855-1.056 1.57-1.34 2.162-.286.592-.483 1.282-.153 1.973l1.477-.704c-.002-.004-.071-.1.15-.56s.621-1.06 1.225-1.96zm5.771 5.147c-.312-.397-.61-.805-1.056-1.035l-.75 1.455c.055.028.115.076.519.59zm-2.603.335c.661.034.74.056.798.085l.749-1.455c-.444-.228-.951-.237-1.463-.264zm6.184-.49c-.416.996-.695 1.659-.957 2.098-.26.434-.386.447-.41.451l.263 1.615c.749-.122 1.212-.659 1.552-1.227.337-.564.667-1.36 1.062-2.306zm-4.542 1.58c.611.78 1.129 1.444 1.597 1.882.479.449 1.078.826 1.84.702l-.263-1.615c-.011.002-.114.042-.458-.281-.355-.332-.782-.872-1.43-1.697zm6.806-4.09c-.492.192-.961.359-1.317.706l1.144 1.17c.062-.06.148-.11.767-.352zm-.544 2.638c.257-.615.31-.701.371-.762l-1.144-1.17c-.355.347-.533.813-.737 1.302zm1.703-6.097c.804.672 1.33 1.115 1.652 1.48.311.354.271.458.268.474l1.608.304c.143-.757-.214-1.366-.648-1.86-.424-.481-1.07-1.018-1.83-1.654zm-.059 4.786c.953-.371 1.754-.681 2.325-1.005.577-.327 1.12-.777 1.262-1.523l-1.608-.304c-.005.029-.023.155-.46.403-.444.252-1.11.514-2.113.905zm-1.57-7.684c.013.516.008 1.023.223 1.472l1.476-.704c-.028-.06-.047-.143-.063-.808zm2.274 1.304c-.501-.418-.548-.48-.575-.536l-1.476.704c.216.454.614.764 1.002 1.088zm-.651-1.88c-.025-1.01-.043-1.863-.155-2.5-.111-.643-.358-1.32-1.048-1.674l-.749 1.455c.013.006.03.014.059.066.037.068.085.197.127.433.085.488.104 1.193.13 2.26zm-4.488-1.406c.912-.582 1.52-.968 1.983-1.178s.553-.135.553-.135l.749-1.455c-.684-.352-1.38-.17-1.977.1-.596.27-1.322.735-2.188 1.288zm4.203 12.342 1.636 1.637 1.157-1.157-1.636-1.637z"/></svg>
